X:1
T:Si mi dicesti
T:Si mi dicesti
T:Enrico Radesca di Foggio
T:Source : Canzonette a 2 voci---Libro III---Milano (?)---Heredes S.Tini & F.Lomazzi (?)---1616. Editor : André Vierendeels (02/04/14).
C:Enrico Radesca di Foggio
%%score [ 1 2 ] 3
L:1/8
Q:1/4=90
M:4/4
K:F
V:1 treble nm="Soprano" snm="S"
V:2 bass nm="Bass" snm="B"
V:3 bass nm="MusicXML Part"
V:1
 A4 z AB^F | G4 A2 z A | B8 | A4 A2 A2 | =B6 AB | c8- | ^c2 c4 c2 | d6 dc | B6 G2 | A6 D2 | %10
w: Si, si mi di-|ce- sti, ed'|i-|o, quel dol-|cis- si- mo|si,|_ quel dol-|cis- si- mo|si man-|dai nel|
 E4 Eccc | c6 A2 | G8 | F4 A2 B2 | c2 cc ccBA | G2 G2 z2 GA | B2 BB BBAG | F2 Dd f2 e2 | %18
w: co- re, su- bi- ta-|men t'ed|ar-|si, di quel|fo- co bel- lis- si- mo d'a-|mo- re, di quel|fo- co bel- lis- si- mo d'a-|mo- re, che per altr'|
 d3 c B2 A2 | G3 F E4 | D2 B2 d2 c2 | B3 A G2 d2 | c3 B A4 | G8 :: Bc d4 ^cc | d4 A4 | AB c4 =BB | %27
w: es- ca non po-|tea de- star-|si, che per altr'|es- ca non po-|tea de- star-|si:|hor che voi vi pen-|ti- te,|hor che voi chi pen-|
 c2 A2 z2 c2 | A2 d2 c4 | B2 z d fffd | c2 cd _eeec | B2 Bc d2 z c | d2 B2 A4 | G2 d2 _e2 =B2 | %34
w: ti- te, anch'|io mi pen-|to,- e com' un si m'ac-|ce- se, a com' un si m'ac-|ce- se un no vo|no m'ha spen-|to, un no m'ha|
 c2 Gd _e2 =B2 | c2 G2 z4 :| %36
w: spen- to, un no m'ha|spen- to!|
V:2
 z4 D,4 | z G,^F,E, D,3 D, | G,,8 | D,8 | z4 G,2 G,2 | E,6 F,G, | A,8 | z2 ^F,4 F,2 | G,6 F,E, | %9
w: Si,|si mi di- ce- sti'ed|i-|o,|quel dol-|cis- si- mo|si,|quel dol-|cis- si- mo|
 D,2 C,2 B,,2 B,,2 | A,,4 A,,4 | z F,F,F, F,2 B,,2 | C,8 | F,,8 | z4 A,,2 B,,2 | %15
w: si man- dai nel|co- re,|su- bi- ta- men- t'ed|ar-|si,|di quel|
 C,2 C,C, C,C,B,,A,, | G,,4 G,,4 | z2 D,2 D,2 A,,2 | B,,2 F,,2 G,,2 A,,2 | B,,2 G,,2 A,,4 | %20
w: fo- co bel- lis- si- mo d'a-|mo- re,|che per altr'|es- ca non po-|tea de- star-|
 D,2 G,2 B,2 F,2 | G,2 D,2 _E,2 B,,2 | C,2 G,,2 D,4 | G,,8 :: G,2 B,2 A,2 A,A, | D,4 D,4 | %26
w: si, che per altr'|es- ca non po-|tea de- star-|si:|hor che voi vi pen-|ti- te,|
 F,2 A,2 G,2 G,G, | C,2 C,2 z2 C,2 | D,3 E, F,4 | B,,4 z2 D,2 | F,F,F,D, C,2 C,C, | %31
w: hor che voi chi pen-|ti- te, arch'|io mi pen-|to, e|com' un si m'ac- ce- se, e|
 _E,E,E,C, B,,3 C, | D,2 G,,2 D,4 | G,,4 z2 D,2 | _E,2 =B,,2 C,2 G,,2 | z8 :| %36
w: com' un si m'ac- ce- se'un|no m'ha spen-|to, un|no m'ha spen- to!||
V:3
 A,4 D,4 | G,4 D,4 |"^-natural" G,,8 | D,8 | G,8 | E,6 F,G, |"^-natural" A,8 | D,8 | G,6 F,E, | %9
 D,2 C,2 B,,4 | A,,8 | F,6 B,,2 | C,8 | F,,8 | C,4 A,,2 B,,2 | C,6 B,,A,, | G,,8 | D,6 A,,2 | %18
 B,,2 F,,2 G,,2 A,,2 | B,,2 G,,2 A,,4 | D,2 G,2 B,2 F,2 | G,2 D,2 _E,2 B,,2 | C,2 G,,2 D,4 | %23
 G,,8 :: G,4 A,4 | D,8 | F,4 G,4 | C,6 C,2 | D,4 F,4 | B,,4 D,4 | F,4 C,4 | _E,4 B,,4 | %32
 D,2 G,,2 D,4 | G,,4 C,2 D,2 | C,2 G,,2 C,2 G,,2 | C,2 G,,2 z4 :| %36

